dist/img/svg/property__item-icon--12.svg

<svg width="48" height="48" viewBox="0 0 48 48" fill="none" xmlns="http://www.w3.org/2000/svg">
<circle cx="24" cy="24" r="24" fill="#1F2120"/>
<path d="M24 14V16C19.0413 16 15 20.0413 15 25C15 29.9587 19.0413 34 24 34C28.9587 34 33 29.9587 33 25H35C35 18.9605 30.0395 14 24 14ZM24 18V20C26.7965 20 29 22.2035 29 25H31C31 28.8778 27.8778 32 24 32C20.1222 32 17 28.8778 17 25C17 21.1222 20.1222 18 24 18ZM24 22C22.343 22 21 23.343 21 25C21 26.657 22.343 28 24 28C25.657 28 27 26.657 27 25C27 23.343 25.657 22 24 22ZM24 24C24.551 24 25 24.449 25 25C25 25.551 24.551 26 24 26C23.449 26 23 25.551 23 25C23 24.449 23.449 24 24 24Z" fill="white"/>
</svg>

<svg width="48" height="48" viewBox="0 0 48 48" fill="none" xmlns="http://www.w3.org/2000/svg"><circle cx="24" cy="24" r="24" fill="#1F2120"/><path d="M24 14v2c-4.959 0-9 4.041-9 9s4.041 9 9 9 9-4.041 9-9h2c0-6.04-4.96-11-11-11zm0 4v2c2.797 0 5 2.203 5 5h2c0 3.878-3.122 7-7 7s-7-3.122-7-7 3.122-7 7-7zm0 4a3 3 0 100 6 3 3 0 000-6zm0 2c.551 0 1 .449 1 1 0 .551-.449 1-1 1-.551 0-1-.449-1-1 0-.551.449-1 1-1z" fill="#fff"/></svg>
